flaticon/productivity/speedometer.svg

<svg xmlns="http://www.w3.org/2000/svg" width="32" height="32" viewBox="0 0 24 24">
    <path d="M 12 5.113281 C 5.382812 5.113281 0 10.496094 0 17.113281 C 0 17.539062 0.0234375 17.984375 0.0742188 18.433594 L 0.125 18.886719 L 23.875 18.886719 L 23.925781 18.433594 C 23.976562 17.984375 24 17.542969 24 17.113281 C 24 10.496094 18.617188 5.113281 12 5.113281 Z M 22.953125 17.867188 L 20.703125 17.867188 C 20.730469 17.601562 20.742188 17.351562 20.742188 17.113281 C 20.742188 16.835938 20.730469 16.5625 20.703125 16.292969 L 19.6875 16.386719 C 19.710938 16.625 19.71875 16.871094 19.71875 17.113281 C 19.71875 17.351562 19.707031 17.597656 19.675781 17.867188 L 12.765625 17.867188 L 15.054688 12.398438 L 14.113281 12.003906 L 11.660156 17.867188 L 4.324219 17.867188 C 4.292969 17.597656 4.28125 17.351562 4.28125 17.113281 C 4.28125 16.871094 4.292969 16.625 4.3125 16.386719 L 3.296875 16.292969 C 3.269531 16.5625 3.257812 16.835938 3.257812 17.113281 C 3.257812 17.351562 3.269531 17.601562 3.296875 17.867188 L 1.046875 17.867188 C 1.03125 17.609375 1.019531 17.359375 1.019531 17.113281 C 1.019531 11.058594 5.945312 6.132812 12 6.132812 C 18.054688 6.132812 22.980469 11.058594 22.980469 17.113281 C 22.980469 17.359375 22.96875 17.609375 22.953125 17.867188 Z M 22.953125 17.867188"/>
    <path d="M10.175781 8.5625L10.386719 9.5625C11.441406 9.335938 12.566406 9.335938 13.621094 9.5625L13.832031 8.5625C12.640625 8.308594 11.367188 8.308594 10.175781 8.5625zM4.398438 12.792969L5.285156 13.296875C5.820312 12.359375 6.566406 11.523438 7.4375 10.882812L6.835938 10.058594C5.847656 10.785156 5.003906 11.726562 4.398438 12.792969zM17.171875 10.0625L16.566406 10.886719C17.441406 11.527344 18.183594 12.363281 18.71875 13.304688L19.605469 12.796875C19 11.734375 18.160156 10.789062 17.171875 10.0625zM17.171875 10.0625"/>
</svg>

<svg xmlns="http://www.w3.org/2000/svg" width="32" height="32" viewBox="0 0 24 24">
    <path d="M12 5.113c-6.617 0-12 5.383-12 12 0 .426.023.871.074 1.32l.051.454h23.75l.05-.453c.052-.45.075-.891.075-1.32 0-6.618-5.383-12-12-12zm10.953 12.754h-2.25c.027-.265.04-.515.04-.754 0-.277-.013-.55-.04-.82l-1.015.094a7.48 7.48 0 0 1-.012 1.48h-6.91l2.289-5.469-.942-.394-2.453 5.863H4.324a6.46 6.46 0 0 1-.043-.754c0-.242.012-.488.032-.726l-1.016-.094a8.125 8.125 0 0 0 0 1.574h-2.25a12.49 12.49 0 0 1-.027-.754c0-6.054 4.925-10.98 10.98-10.98 6.055 0 10.98 4.926 10.98 10.98 0 .246-.011.496-.027.754zm0 0"/>
    <path d="M10.176 8.563l.21 1a7.78 7.78 0 0 1 3.235 0l.211-1a8.87 8.87 0 0 0-3.656 0zm0 0M4.398 12.793l.887.504a7.862 7.862 0 0 1 2.152-2.414l-.601-.824a8.834 8.834 0 0 0-2.438 2.734zm0 0M17.172 10.063l-.606.824a7.782 7.782 0 0 1 2.153 2.418l.886-.508a8.865 8.865 0 0 0-2.433-2.735zm0 0"/>
</svg>
